assets/azureapplens/original.svg

<svg height="18" viewBox="0 0 18 18" width="18" xmlns="http://www.w3.org/2000/svg" xmlns:xlink="http://www.w3.org/1999/xlink"><linearGradient id="a" gradientUnits="userSpaceOnUse" x2="18" y1="9" y2="9"><stop offset="0" stop-color="#5ea0ef"/><stop offset="1" stop-color="#0078d4"/></linearGradient><linearGradient id="b" gradientUnits="userSpaceOnUse" x1="3.092" x2="14.9" y1="8.98" y2="8.98"><stop offset="0" stop-color="#50e6ff"/><stop offset="1" stop-color="#32bedd"/></linearGradient><linearGradient id="c" gradientUnits="userSpaceOnUse" x1="3.154" x2="10.922" y1="6.215" y2="6.215"><stop offset="0" stop-color="#5ea0ef"/><stop offset=".432" stop-color="#3890e4"/><stop offset="1" stop-color="#0078d4"/></linearGradient><path d="m9.276 0a8.96 8.96 0 0 0 -5.308 1.54.6.6 0 0 0 -.138.873l.788.993a7.1 7.1 0 1 1 -2.534 3.953.6.6 0 0 0 -.412-.707l-.657-.2a.6.6 0 0 0 -.763.434 9 9 0 1 0 9.024-6.886" fill="url(#a)"/><circle cx="13.69" cy="7.663" fill="#f78d1e" r="1.437"/><circle cx="7.896" cy="13.799" fill="#f78d1e" r="1.437"/><path d="m6.125 6.191-1.132-1.532a5.9 5.9 0 0 1 8.859.983c-.054 0-.106-.016-.162-.016a2.03 2.03 0 0 0 -1.617.812 3.984 3.984 0 0 0 -5.948-.247m-.266 7.609a2.03 2.03 0 0 1 .761-1.575 4 4 0 0 1 -1.598-2.625 4 4 0 0 1 .024-1.338.6.6 0 0 0 -.409-.689l-.66-.205a.6.6 0 0 0 -.766.448 5.88 5.88 0 0 0 2.668 6.184c-.006-.07-.02-.134-.02-.2m7.831-4.1a2 2 0 0 1 -.721-.138 4.02 4.02 0 0 1 -3.233 3.376 1.99 1.99 0 0 1 -.114 1.93 5.9 5.9 0 0 0 5.278-5.575 2.03 2.03 0 0 1 -1.21.407" fill="url(#b)"/><path d="m9.253 7.094a1.9 1.9 0 0 0 -.834.074l-4.446-5.661-.59.463a.6.6 0 0 0 -.1.843l4.076 5.187a1.9 1.9 0 0 0 -.259 1.26 1.923 1.923 0 1 0 2.153-2.166" fill="url(#c)"/></svg>

<svg xmlns="http://www.w3.org/2000/svg" width="18" height="18" viewBox="0 0 18 18"><defs><linearGradient id="b64029dc-53b6-43b2-8aae-92413846e51c" x2="18" y1="9" y2="9" gradientUnits="userSpaceOnUse"><stop offset="0" stop-color="#5ea0ef"/><stop offset="1" stop-color="#0078d4"/></linearGradient><linearGradient id="bfc54d5e-2678-40a3-87f5-a3381ba974de" x1="3.092" x2="14.9" y1="8.98" y2="8.98" gradientUnits="userSpaceOnUse"><stop offset="0" stop-color="#50e6ff"/><stop offset="1" stop-color="#32bedd"/></linearGradient><linearGradient id="b1aeb350-670b-47cd-881a-82e451a61e61" x1="3.154" x2="10.922" y1="6.215" y2="6.215" gradientUnits="userSpaceOnUse"><stop offset="0" stop-color="#5ea0ef"/><stop offset=".432" stop-color="#3890e4"/><stop offset="1" stop-color="#0078d4"/></linearGradient></defs><g id="a8e49afa-0212-415e-a59c-566b1a954500"><path fill="url(#b64029dc-53b6-43b2-8aae-92413846e51c)" d="M9.276 0a8.96 8.96 0 0 0-5.308 1.54.6.6 0 0 0-.138.873l.788.993a7.1 7.1 0 1 1-2.534 3.953.6.6 0 0 0-.412-.707l-.657-.2a.6.6 0 0 0-.763.434A9 9 0 1 0 9.276 0"/><circle cx="13.69" cy="7.663" r="1.437" fill="#f78d1e"/><circle cx="7.896" cy="13.799" r="1.437" fill="#f78d1e"/><path fill="url(#bfc54d5e-2678-40a3-87f5-a3381ba974de)" d="M6.125 6.191 4.993 4.659a5.9 5.9 0 0 1 8.859.983c-.054 0-.106-.016-.162-.016a2.03 2.03 0 0 0-1.617.812 3.984 3.984 0 0 0-5.948-.247M5.859 13.8a2.03 2.03 0 0 1 .761-1.575A4 4 0 0 1 5.022 9.6a4 4 0 0 1 .024-1.338.6.6 0 0 0-.409-.689l-.66-.205a.6.6 0 0 0-.766.448A5.88 5.88 0 0 0 5.879 14c-.006-.07-.02-.134-.02-.2m7.831-4.1a2 2 0 0 1-.721-.138 4.02 4.02 0 0 1-3.233 3.376 1.99 1.99 0 0 1-.114 1.93A5.9 5.9 0 0 0 14.9 9.293a2.03 2.03 0 0 1-1.21.407"/><path fill="url(#b1aeb350-670b-47cd-881a-82e451a61e61)" d="M9.253 7.094a1.9 1.9 0 0 0-.834.074L3.973 1.507l-.59.463a.6.6 0 0 0-.1.843L7.359 8A1.9 1.9 0 0 0 7.1 9.26a1.923 1.923 0 1 0 2.153-2.166"/></g></svg>
